X:1
T:Hard Times in Dixie
M:2/4
L:1/8
K:E
 EE EG| BB B z/2 B/2|c-d e3/2 c/2| BG z2| E3/2 E/2 EG| BB B z|e-c B3/2 E/2|\
 FE z2| B3/2 A/2 GA| BG c2| BG B z/2 G/2| BF F2| E3/2 F/2 GB| ed c z/2 c/2|\
 B2 F3/2 B/2| GE z2| GB GB| GB G2| A3/2 B/2 cA| FB A z| G3/2 A/2 BG|\
 cB A z/2 A/2| G2 B3/2 B/2| BG z2|
